material/.icons/material/card-account-mail-outline.svg

<svg xmlns="http://www.w3.org/2000/svg" viewBox="0 0 24 24"><path d="M22 3H2a2 2 0 00-2 2v14a2 2 0 002 2h20a2 2 0 002-2V5a2 2 0 00-2-2m0 16H2V5h20v14M21 6h-7v5h7V6m-1 2l-2.5 1.75L15 8V7l2.5 1.75L20 7v1M9 12a3 3 0 003-3 3 3 0 00-3-3 3 3 0 00-3 3 3 3 0 003 3m0-4a1 1 0 011 1 1 1 0 01-1 1 1 1 0 01-1-1 1 1 0 011-1m6 8.59c0-2.5-3.97-3.59-6-3.59s-6 1.09-6 3.59V18h12v-1.41M5.5 16c.72-.5 2.2-1 3.5-1 1.3 0 2.77.5 3.5 1h-7z"/></svg>

<?xml version="1.0" encoding="UTF-8"?><!DOCTYPE svg PUBLIC "-//W3C//DTD SVG 1.1//EN" "http://www.w3.org/Graphics/SVG/1.1/DTD/svg11.dtd"><svg xmlns="http://www.w3.org/2000/svg" xmlns:xlink="http://www.w3.org/1999/xlink" version="1.1" id="mdi-card-account-mail-outline" width="24" height="24" viewBox="0 0 24 24"><path d="M22,3H2A2,2 0 0,0 0,5V19A2,2 0 0,0 2,21H22A2,2 0 0,0 24,19V5A2,2 0 0,0 22,3M22,19H2V5H22V19M21,6H14V11H21V6M20,8L17.5,9.75L15,8V7L17.5,8.75L20,7V8M9,12A3,3 0 0,0 12,9A3,3 0 0,0 9,6A3,3 0 0,0 6,9A3,3 0 0,0 9,12M9,8A1,1 0 0,1 10,9A1,1 0 0,1 9,10A1,1 0 0,1 8,9A1,1 0 0,1 9,8M15,16.59C15,14.09 11.03,13 9,13C6.97,13 3,14.09 3,16.59V18H15V16.59M5.5,16C6.22,15.5 7.7,15 9,15C10.3,15 11.77,15.5 12.5,16H5.5Z" /></svg>
